COLOR/action 16/16/mail-unread.svg

<svg height="16" width="16" xmlns="http://www.w3.org/2000/svg"><g stroke-width="1.142908" transform="translate(-1.525424 -9.118644)"><path d="m9.526337 9.1186177-.750599 1.6073063-.000204-.000727-.463671.965136s-1.284724-1.126305 0 0l-1.250998 2.677626-5.5354413.858447 3.9995436 4.105936-.3926493 2.500457-.1789751 1.000913-.3561241 2.284932 4.9291182-2.748859 4.927291 2.748859-.927748-5.786302 3.999544-4.105936-5.535442-.858447z" fill="#eab305"/><g transform="translate(1.525424 9.118644)"><path d="m8 0-.75 1.6074219-.4628906.9648437-1.2519532 2.6777344-5.5351562.8574219.42382812.4335937 5.11132808-.7910156 1.2519532-2.6777344.4628906-.9648437.75-1.6074219 2.464844 5.25 5.111328.7910156.423828-.4335937-5.535156-.8574219zm-4.0683594 10.642578-.3242187 2.072266-.1796875 1-.3554688 2.285156.0859375-.046875.2695313-1.738281.1796875-1 .3925781-2.501953zm8.1367184 0-.068359.070313.839844 5.238281.08789.048828z" fill="#fff" opacity=".3"/><path d="m.42382812 6.0410156-.42382812.0664063 3.9316406 4.0351561.0683594-.4296874zm15.15234388 0-3.576172 3.671875.068359.4296874 3.931641-4.0351561zm-7.576172 6.7109374-4.8417969 2.701172-.0859375.546875 4.9277344-2.748047 4.927734 2.748047-.08789-.548828z" fill="#423f38" opacity=".2"/></g></g></svg>

<?xml version="1.0" encoding="UTF-8" standalone="no"?>
<svg
   xmlns:dc="http://purl.org/dc/elements/1.1/"
   xmlns:cc="http://creativecommons.org/ns#"
   xmlns:rdf="http://www.w3.org/1999/02/22-rdf-syntax-ns#"
   xmlns:svg="http://www.w3.org/2000/svg"
   xmlns="http://www.w3.org/2000/svg"
   xmlns:sodipodi="http://sodipodi.sourceforge.net/DTD/sodipodi-0.dtd"
   xmlns:inkscape="http://www.inkscape.org/namespaces/inkscape"
   height="16"
   width="16"
   version="1.1"
   id="svg10"
   sodipodi:docname="draw-polygon-star.svg"
   inkscape:version="0.92.4 (5da689c313, 2019-01-14)">
  <metadata
     id="metadata16">
    <rdf:RDF>
      <cc:Work
         rdf:about="">
        <dc:format>image/svg+xml</dc:format>
        <dc:type
           rdf:resource="http://purl.org/dc/dcmitype/StillImage" />
        <dc:title></dc:title>
      </cc:Work>
    </rdf:RDF>
  </metadata>
  <defs
     id="defs14" />
  <sodipodi:namedview
     pagecolor="#ffffff"
     bordercolor="#666666"
     borderopacity="1"
     objecttolerance="10"
     gridtolerance="10"
     guidetolerance="10"
     inkscape:pageopacity="0"
     inkscape:pageshadow="2"
     inkscape:window-width="1920"
     inkscape:window-height="1016"
     id="namedview12"
     showgrid="false"
     inkscape:zoom="46.611033"
     inkscape:cx="7.8915307"
     inkscape:cy="7.7091855"
     inkscape:window-x="0"
     inkscape:window-y="27"
     inkscape:window-maximized="1"
     inkscape:current-layer="g8" />
  <g
     id="g8"
     transform="translate(-1.5254237,-9.1186441)"
     style="stroke-width:1.57149804">
    <path
       d="m 9.526337,9.1186177 -0.750599,1.6073063 -2.04e-4,-7.27e-4 -0.463671,0.965136 c 0,0 -1.284724,-1.126305 0,0 l -1.250998,2.677626 -5.5354413,0.858447 3.9995436,4.105936 -0.3926493,2.500457 -0.1789751,1.000913 -0.3561241,2.284932 4.9291182,-2.748859 4.927291,2.748859 -0.927748,-5.786302 3.999544,-4.105936 -5.535442,-0.858447 z"
       id="path2"
       inkscape:connector-curvature="0"
       style="fill:#eab305;stroke-width:1.14290762" />
    <path
       style="fill:#ffffff;stroke-width:1.14290762;fill-opacity:1;opacity:0.3"
       d="M 8 0 L 7.25 1.6074219 L 6.7871094 2.5722656 L 5.5351562 5.25 L 0 6.1074219 L 0.42382812 6.5410156 L 5.5351562 5.75 L 6.7871094 3.0722656 L 7.25 2.1074219 L 8 0.5 L 10.464844 5.75 L 15.576172 6.5410156 L 16 6.1074219 L 10.464844 5.25 L 8 0 z M 3.9316406 10.642578 L 3.6074219 12.714844 L 3.4277344 13.714844 L 3.0722656 16 L 3.1582031 15.953125 L 3.4277344 14.214844 L 3.6074219 13.214844 L 4 10.712891 L 3.9316406 10.642578 z M 12.068359 10.642578 L 12 10.712891 L 12.839844 15.951172 L 12.927734 16 L 12.068359 10.642578 z "
       transform="translate(1.5254237,9.1186441)"
       id="path815" />
    <path
       style="fill:#423f38;stroke-width:1.14290762;fill-opacity:1;opacity:0.2"
       d="M 0.42382812 6.0410156 L 0 6.1074219 L 3.9316406 10.142578 L 4 9.7128906 L 0.42382812 6.0410156 z M 15.576172 6.0410156 L 12 9.7128906 L 12.068359 10.142578 L 16 6.1074219 L 15.576172 6.0410156 z M 8 12.751953 L 3.1582031 15.453125 L 3.0722656 16 L 8 13.251953 L 12.927734 16 L 12.839844 15.451172 L 8 12.751953 z "
       transform="translate(1.5254237,9.1186441)"
       id="path820" />
  </g>
</svg>
